front/src/Assets/image/payment/GooglePay.svg

<svg width="50" height="22" viewBox="0 0 50 22" fill="none" xmlns="http://www.w3.org/2000/svg">
<path fill-rule="evenodd" clip-rule="evenodd" d="M23.0603 16.703V10.7114H26.1786C27.4564 10.7114 28.535 10.2868 29.4142 9.44938L29.6252 9.23708C31.2313 7.5033 31.1258 4.80237 29.4142 3.19832C28.5584 2.34912 27.3861 1.88914 26.1786 1.91273H21.1729V16.703H23.0603ZM23.0605 8.89493V3.72896H26.2262C26.9063 3.72896 27.5511 3.98844 28.0319 4.46022C29.0519 5.45095 29.0754 7.10217 28.0905 8.12829C27.6098 8.63545 26.9297 8.91852 26.2262 8.89493H23.0605ZM38.4293 7.37351C37.6204 6.63046 36.5185 6.25304 35.1234 6.25304C33.3298 6.25304 31.9816 6.91353 31.0907 8.22271L32.7553 9.27242C33.3649 8.37604 34.1973 7.92785 35.2524 7.92785C35.9206 7.92785 36.5654 8.17553 37.0695 8.62372C37.5618 9.04832 37.8432 9.66163 37.8432 10.3103V10.7467C37.1163 10.3457 36.2019 10.1334 35.0765 10.1334C33.7635 10.1334 32.7085 10.4401 31.923 11.0652C31.1376 11.6903 30.739 12.5159 30.739 13.5656C30.7155 14.5209 31.1258 15.4291 31.8527 16.0424C32.5912 16.7029 33.5291 17.0332 34.631 17.0332C35.9323 17.0332 36.9639 16.4552 37.7494 15.2994H37.8315V16.7029H39.6368V10.4637C39.6368 9.15447 39.2382 8.11656 38.4293 7.37351ZM33.3066 14.8394C32.9197 14.5564 32.6852 14.0964 32.6852 13.601C32.6852 13.0467 32.9432 12.5867 33.4473 12.2211C33.9632 11.8554 34.6081 11.6667 35.3702 11.6667C36.4255 11.6549 37.2462 11.8908 37.8325 12.3626C37.8325 13.1646 37.5159 13.8605 36.8945 14.4502C36.3317 15.0163 35.5696 15.3348 34.7723 15.3348C34.2446 15.3466 33.7287 15.1697 33.3066 14.8394ZM43.693 21.1494L50.0001 6.58327H47.9485L45.0295 13.8486H44.9943L42.0049 6.58327H39.9534L44.0916 16.0542L41.747 21.1494H43.693Z" fill="#3C4043"/>
<path d="M16.5442 9.41413C16.5442 8.8362 16.4973 8.25827 16.4035 7.69214H8.44351V10.9592H13.0038C12.8162 12.0089 12.2066 12.9525 11.3157 13.5422V15.6652H14.0354C15.6298 14.1909 16.5442 12.0089 16.5442 9.41413Z" fill="#4285F4"/>
<path d="M8.44388 17.7174C10.7182 17.7174 12.6408 16.9626 14.0358 15.6652L11.316 13.5422C10.554 14.0611 9.58102 14.356 8.44388 14.356C6.23993 14.356 4.37596 12.8581 3.70774 10.853H0.905914V13.0468C2.33613 15.9128 5.25519 17.7174 8.44388 17.7174Z" fill="#34A853"/>
<path d="M3.70806 10.853C3.35631 9.80331 3.35631 8.65924 3.70806 7.59774V5.41577H0.905785C-0.301888 7.81004 -0.301888 10.6407 0.905785 13.035L3.70806 10.853Z" fill="#FBBC04"/>
<path d="M8.44388 4.09484C9.65136 4.07125 10.8119 4.53124 11.6795 5.36864L14.0944 2.93898C12.5587 1.50006 10.5423 0.709835 8.44388 0.733423C5.25519 0.733423 2.33613 2.54977 0.905914 5.41582L3.70774 7.60959C4.37596 5.59274 6.23993 4.09484 8.44388 4.09484Z" fill="#EA4335"/>
</svg>

<svg xmlns="http://www.w3.org/2000/svg" fill="none" viewBox="0 0 50 22">
  <path fill="#3C4043" fill-rule="evenodd" d="M23.06 16.703v-5.992h3.119c1.277 0 2.356-.424 3.235-1.262l.211-.212a4.288 4.288 0 00-.21-6.039 4.47 4.47 0 00-3.236-1.285h-5.006v14.79h1.887zm0-7.808V3.729h3.166c.68 0 1.325.26 1.806.731a2.613 2.613 0 01.058 3.668c-.48.507-1.16.79-1.864.767h-3.165zm15.37-1.521c-.81-.744-1.911-1.121-3.307-1.121-1.793 0-3.141.66-4.032 1.97l1.664 1.05c.61-.897 1.442-1.345 2.497-1.345.669 0 1.313.248 1.817.696a2.22 2.22 0 01.774 1.686v.437c-.727-.401-1.641-.614-2.767-.614-1.313 0-2.367.307-3.153.932-.785.625-1.184 1.45-1.184 2.5a3.136 3.136 0 001.114 2.477c.738.66 1.676.991 2.778.991 1.301 0 2.333-.578 3.118-1.734h.082v1.404h1.806v-6.24c0-1.309-.399-2.346-1.208-3.09zm-5.123 7.465a1.533 1.533 0 01-.622-1.238c0-.554.258-1.014.762-1.38.516-.366 1.161-.554 1.923-.554 1.056-.012 1.876.224 2.463.696 0 .802-.317 1.498-.938 2.087a2.99 2.99 0 01-2.123.885 2.296 2.296 0 01-1.465-.496zm10.386 6.31L50 6.583h-2.05l-2.92 7.266h-.035l-2.99-7.266h-2.05l4.138 9.471-2.345 5.095h1.946z" clip-rule="evenodd"/>
  <path fill="#4285F4" d="M16.544 9.414c0-.578-.047-1.156-.14-1.722h-7.96v3.267h4.56a3.934 3.934 0 01-1.688 2.583v2.123h2.72c1.594-1.474 2.508-3.656 2.508-6.25z"/>
  <path fill="#34A853" d="M8.444 17.717c2.274 0 4.197-.754 5.592-2.052l-2.72-2.123c-.762.52-1.735.814-2.872.814-2.204 0-4.068-1.498-4.736-3.503H.906v2.194a8.426 8.426 0 007.538 4.67z"/>
  <path fill="#FBBC04" d="M3.708 10.853a5.153 5.153 0 010-3.255V5.416H.906a8.465 8.465 0 000 7.619l2.802-2.182z"/>
  <path fill="#EA4335" d="M8.444 4.095a4.528 4.528 0 013.236 1.274l2.414-2.43A8.12 8.12 0 008.444.733 8.437 8.437 0 00.906 5.416L3.708 7.61c.668-2.017 2.532-3.515 4.736-3.515z"/>
</svg>
